SVG_Azure_All/Container Kubernetes Service.svg

<?xml version="1.0" encoding="UTF-8" standalone="no"?>
<!-- Generated by Microsoft Visio, SVG Export Container Kubernetes Service.svg Page-1 -->

<svg
   xmlns:dc="http://purl.org/dc/elements/1.1/"
   xmlns:cc="http://creativecommons.org/ns#"
   xmlns:rdf="http://www.w3.org/1999/02/22-rdf-syntax-ns#"
   xmlns:svg="http://www.w3.org/2000/svg"
   xmlns="http://www.w3.org/2000/svg"
   xmlns:xlink="http://www.w3.org/1999/xlink"
   xmlns:sodipodi="http://sodipodi.sourceforge.net/DTD/sodipodi-0.dtd"
   xmlns:inkscape="http://www.inkscape.org/namespaces/inkscape"
   width="0.78743464in"
   height="0.70860994in"
   viewBox="0 0 56.695499 51.019724"
   xml:space="preserve"
   class="st4"
   version="1.1"
   id="svg97"
   sodipodi:docname="Container Kubernetes Service.svg"
   style="font-size:12px;overflow:visible;color-interpolation-filters:sRGB;fill:none;fill-rule:evenodd;stroke-linecap:square;stroke-miterlimit:3"
   inkscape:version="0.92.5 (2060ec1f9f, 2020-04-08)"><metadata
   id="metadata101"><rdf:RDF><cc:Work
       rdf:about=""><dc:format>image/svg+xml</dc:format><dc:type
         rdf:resource="http://purl.org/dc/dcmitype/StillImage" /></cc:Work></rdf:RDF></metadata><sodipodi:namedview
   pagecolor="#ffffff"
   bordercolor="#666666"
   borderopacity="1"
   objecttolerance="10"
   gridtolerance="10"
   guidetolerance="10"
   inkscape:pageopacity="0"
   inkscape:pageshadow="2"
   inkscape:window-width="640"
   inkscape:window-height="480"
   id="namedview99"
   showgrid="false"
   inkscape:zoom="1.5137334"
   inkscape:cx="37.795197"
   inkscape:cy="32.599613"
   inkscape:window-x="0"
   inkscape:window-y="0"
   inkscape:window-maximized="0"
   inkscape:current-layer="svg97" />
	<style
   type="text/css"
   id="style2">
	<![CDATA[
		.st1 {fill:url(#grad0-5);stroke:none;stroke-linecap:butt;stroke-width:31.89}
		.st2 {fill:none;stroke:none;stroke-linecap:butt;stroke-width:31.89}
		.st3 {fill:#341a6e;stroke:none;stroke-linecap:butt;stroke-width:31.89}
		.st4 {fill:none;fill-rule:evenodd;font-size:12px;overflow:visible;stroke-linecap:square;stroke-miterlimit:3}
	]]>
	</style>

	<defs
   id="Patterns_And_Gradients">
		<linearGradient
   id="grad0-5"
   x1="0"
   y1="0"
   x2="1"
   y2="0">
			<stop
   offset="0"
   stop-color="#b77af4"
   stop-opacity="1"
   id="stop4" />
			<stop
   offset="1"
   stop-color="#773adc"
   stop-opacity="1"
   id="stop6" />
		</linearGradient>
	<linearGradient
   inkscape:collect="always"
   xlink:href="#grad0-5"
   id="linearGradient4611"
   x1="0"
   y1="106.22022"
   x2="17.046258"
   y2="106.22022"
   gradientTransform="scale(1.0541903,0.94859531)"
   gradientUnits="userSpaceOnUse" /><linearGradient
   inkscape:collect="always"
   xlink:href="#grad0-5"
   id="linearGradient4613"
   x1="0"
   y1="106.13152"
   x2="17.032023"
   y2="106.13152"
   gradientTransform="scale(1.05331,0.94938811)"
   gradientUnits="userSpaceOnUse" /><linearGradient
   inkscape:collect="always"
   xlink:href="#grad0-5"
   id="linearGradient4615"
   x1="0"
   y1="106.22022"
   x2="17.046258"
   y2="106.22022"
   gradientTransform="scale(1.0541903,0.94859531)"
   gradientUnits="userSpaceOnUse" /><linearGradient
   inkscape:collect="always"
   xlink:href="#grad0-5"
   id="linearGradient4617"
   x1="0"
   y1="105.95841"
   x2="17.053076"
   y2="105.95841"
   gradientTransform="scale(1.0520096,0.95056165)"
   gradientUnits="userSpaceOnUse" /><linearGradient
   inkscape:collect="always"
   xlink:href="#grad0-5"
   id="linearGradient4619"
   x1="0"
   y1="106.22022"
   x2="17.046258"
   y2="106.22022"
   gradientTransform="scale(1.0541903,0.94859531)"
   gradientUnits="userSpaceOnUse" /><linearGradient
   inkscape:collect="always"
   xlink:href="#grad0-5"
   id="linearGradient4621"
   x1="0"
   y1="106.22022"
   x2="17.046258"
   y2="106.22022"
   gradientTransform="scale(1.0541903,0.94859531)"
   gradientUnits="userSpaceOnUse" /><linearGradient
   inkscape:collect="always"
   xlink:href="#grad0-5"
   id="linearGradient4623"
   x1="0"
   y1="106.22022"
   x2="17.046258"
   y2="106.22022"
   gradientTransform="scale(1.0541903,0.94859531)"
   gradientUnits="userSpaceOnUse" /></defs>
	<g
   id="g95"
   transform="translate(-31.89,-31.894631)">
		<title
   id="title10">Page-1</title>
		<g
   id="group6101-1"
   transform="translate(31.89,-34.0157)">
			<title
   id="title12">Container Kubernetes Service</title>
			<g
   id="shape6102-2"
   transform="translate(9.21887,-34.8501)">
				<title
   id="title14">polygon41</title>
				<path
   d="m 0,102.46 v 12.51 l 8.97,1.96 9,-3.69 v -9.34 l -9,-3.14 z"
   class="st1"
   id="path16"
   inkscape:connector-curvature="0"
   style="fill:url(#linearGradient4611);stroke:none;stroke-width:31.88999939;stroke-linecap:butt" />
			</g>
			<g
   id="shape6103-6"
   transform="translate(9.40701,-35.0051)">
				<title
   id="title19">path43</title>
				<path
   d="m 9.12,116.89 8.22,-3.4 a 0.627134,0.641807 -180 0 0 0.376281,-0.44926 L 17.72,104.57 a 0.658491,0.673897 -180 0 0 -0.407638,-0.57763 L 9,101.1 H 8.62 l -8.15,1.54 a 0.627134,0.641807 -180 0 0 -0.470351,0.57763 L 0,114.55 a 0.595777,0.609716 -180 0 0 0.470351,0.60971 L 8.72,116.92 a 1.00341,1.02689 -180 0 0 0.4,-0.03 z"
   class="st2"
   id="path21"
   inkscape:connector-curvature="0"
   style="fill:none;stroke:none;stroke-width:31.88999939;stroke-linecap:butt" />
			</g>
			<g
   id="shape6104-8"
   transform="translate(9.21887,-34.8501)">
				<title
   id="title24">path45</title>
				<path
   d="m 0,102.46 v 12.51 l 9.06,1.96 v -16.05 z m 3.83,11.55 -2.54,-0.51 v -9.63 l 2.54,-0.42 z m 3.95,0.74 -2.92,-0.48 v -11.01 l 2.92,-0.51 z"
   class="st3"
   id="path26"
   inkscape:connector-curvature="0"
   style="fill:#341a6e;stroke:none;stroke-width:31.88999939;stroke-linecap:butt" />
			</g>
			<g
   id="shape6105-10"
   transform="translate(28.6287,-34.6896)">
				<title
   id="title29">polygon47</title>
				<path
   d="m 0,102.46 v 12.51 l 8.97,1.96 8.97,-3.72 v -9.31 l -8.97,-3.14 z"
   class="st1"
   id="path31"
   inkscape:connector-curvature="0"
   style="fill:url(#linearGradient4613);stroke:none;stroke-width:31.88999939;stroke-linecap:butt" />
			</g>
			<g
   id="shape6106-13"
   transform="translate(28.6287,-34.6896)">
				<title
   id="title34">path49</title>
				<path
   d="m 0,102.46 v 12.51 l 9,1.96 v -16.05 z m 3.79,11.55 -2.54,-0.51 v -9.63 l 2.54,-0.42 z m 3.96,0.74 -2.92,-0.48 v -11.01 l 2.92,-0.55 z"
   class="st3"
   id="path36"
   inkscape:connector-curvature="0"
   style="fill:#341a6e;stroke:none;stroke-width:31.88999939;stroke-linecap:butt" />
			</g>
			<g
   id="shape6107-15"
   transform="translate(0.0313567,-17.5855)">
				<title
   id="title39">polygon51</title>
				<path
   d="m 0,102.46 v 12.51 l 8.97,1.96 9,-3.69 v -9.34 l -9,-3.14 z"
   class="st1"
   id="path41"
   inkscape:connector-curvature="0"
   style="fill:url(#linearGradient4615);stroke:none;stroke-width:31.88999939;stroke-linecap:butt" />
			</g>
			<g
   id="shape6108-18"
   transform="translate(0,-17.6818)">
				<title
   id="title44">path53</title>
				<path
   d="m 0,102.55 v 12.42 l 9.06,1.96 v -16.05 z m 3.79,11.59 -2.54,-0.55 v -9.63 l 2.54,-0.44 z m 3.99,0.83 -2.92,-0.48 v -11.13 l 2.92,-0.52 z"
   class="st3"
   id="path46"
   inkscape:connector-curvature="0"
   style="fill:#341a6e;stroke:none;stroke-width:31.88999939;stroke-linecap:butt" />
			</g>
			<g
   id="shape6109-20"
   transform="translate(19.3784,-17.6818)">
				<title
   id="title49">polygon55</title>
				<path
   d="m 0,102.42 v 12.52 l 8.97,1.99 8.97,-3.72 v -9.34 l -8.97,-3.15 z"
   class="st1"
   id="path51"
   inkscape:connector-curvature="0"
   style="fill:url(#linearGradient4617);stroke:none;stroke-width:31.88999939;stroke-linecap:butt" />
			</g>
			<g
   id="shape6110-23"
   transform="translate(19.3784,-17.6818)">
				<title
   id="title54">path57</title>
				<path
   d="m 0,102.42 v 12.55 l 9.03,1.96 v -16.05 z m 3.79,11.59 -2.54,-0.55 v -9.62 l 2.54,-0.45 z m 3.96,0.71 -2.92,-0.49 v -11 l 2.92,-0.52 z"
   class="st3"
   id="path56"
   inkscape:connector-curvature="0"
   style="fill:#341a6e;stroke:none;stroke-width:31.88999939;stroke-linecap:butt" />
			</g>
			<g
   id="shape6111-25"
   transform="translate(38.7255,-17.5534)">
				<title
   id="title59">polygon59</title>
				<path
   d="m 0,102.46 v 12.51 l 8.97,1.96 9,-3.69 v -9.34 l -9,-3.14 z"
   class="st1"
   id="path61"
   inkscape:connector-curvature="0"
   style="fill:url(#linearGradient4619);stroke:none;stroke-width:31.88999939;stroke-linecap:butt" />
			</g>
			<g
   id="shape6112-28"
   transform="translate(38.7255,-17.6818)">
				<title
   id="title64">path61</title>
				<path
   d="m 0,102.58 v 12.39 l 9.06,1.96 v -16.05 z m 3.83,11.59 -2.54,-0.55 V 104 l 2.54,-0.45 z m 3.95,0.71 -2.92,-0.49 v -11 l 2.92,-0.52 z"
   class="st3"
   id="path66"
   inkscape:connector-curvature="0"
   style="fill:#341a6e;stroke:none;stroke-width:31.88999939;stroke-linecap:butt" />
			</g>
			<g
   id="shape6113-30"
   transform="translate(8.99937,-0.128361)">
				<title
   id="title69">polygon63</title>
				<path
   d="m 0,102.42 v 12.52 l 8.97,1.99 9,-3.72 v -9.31 l -9,-3.14 z"
   class="st1"
   id="path71"
   inkscape:connector-curvature="0"
   style="fill:url(#linearGradient4621);stroke:none;stroke-width:31.88999939;stroke-linecap:butt" />
			</g>
			<g
   id="shape6114-33"
   transform="translate(9.15616,-0.35007)">
				<title
   id="title74">path65</title>
				<path
   d="m 9.16,116.89 8.18,-3.2 a 0.564421,0.577626 -180 0 0 0.37628,-0.57763 L 17.72,104.76 a 0.627134,0.641807 -180 0 0 -0.407636,-0.70599 L 9.03,101.17 a 0.533064,0.545536 -180 0 0 -0.37628,0 L 0.5,102.68 a 0.595777,0.609716 -180 0 0 -0.501707,0.60972 L 0,114.65 a 0.595777,0.609716 -180 0 0 0.470351,0.60972 L 8.72,116.89 a 0.721204,0.738078 -180 0 0 0.438993,0 z"
   class="st2"
   id="path76"
   inkscape:connector-curvature="0"
   style="fill:none;stroke:none;stroke-width:31.88999939;stroke-linecap:butt" />
			</g>
			<g
   id="shape6115-35"
   transform="translate(8.99937,-0.128361)">
				<title
   id="title79">path67</title>
				<path
   d="m 0,102.42 v 12.52 l 9.06,1.99 v -16.3 z m 3.83,11.59 -2.54,-0.55 v -9.62 l 2.54,-0.45 z m 3.95,0.74 -2.92,-0.48 v -11.04 l 2.92,-0.52 z"
   class="st3"
   id="path81"
   inkscape:connector-curvature="0"
   style="fill:#341a6e;stroke:none;stroke-width:31.88999939;stroke-linecap:butt" />
			</g>
			<g
   id="shape6116-37"
   transform="translate(28.3778)">
				<title
   id="title84">polygon69</title>
				<path
   d="m 0,102.46 v 12.51 l 8.97,1.96 9,-3.69 v -9.34 l -9,-3.14 z"
   class="st1"
   id="path86"
   inkscape:connector-curvature="0"
   style="fill:url(#linearGradient4623);stroke:none;stroke-width:31.88999939;stroke-linecap:butt" />
			</g>
			<g
   id="shape6117-40"
   transform="translate(28.3778)">
				<title
   id="title89">path71</title>
				<path
   d="m 0,102.46 v 12.51 l 9.06,1.96 v -16.05 z m 3.83,11.58 -2.54,-0.54 v -9.63 l 2.54,-0.45 z m 3.95,0.71 -2.92,-0.48 v -11.01 l 2.92,-0.51 z"
   class="st3"
   id="path91"
   inkscape:connector-curvature="0"
   style="fill:#341a6e;stroke:none;stroke-width:31.88999939;stroke-linecap:butt" />
			</g>
		</g>
	</g>
</svg>

<?xml version="1.0" encoding="UTF-8" standalone="no"?>
<!DOCTYPE svg PUBLIC "-//W3C//DTD SVG 1.1//EN" "http://www.w3.org/Graphics/SVG/1.1/DTD/svg11.dtd">
<!-- Generated by Microsoft Visio, SVG Export Container Kubernetes Service.svg Page-1 -->
<svg xmlns="http://www.w3.org/2000/svg" xmlns:xlink="http://www.w3.org/1999/xlink" xmlns:ev="http://www.w3.org/2001/xml-events"
		width="1.67323in" height="1.62402in" viewBox="0 0 120.473 116.929" xml:space="preserve" color-interpolation-filters="sRGB"
		class="st4">
	<style type="text/css">
	<![CDATA[
		.st1 {fill:url(#grad0-5);stroke:none;stroke-linecap:butt;stroke-width:31.89}
		.st2 {fill:none;stroke:none;stroke-linecap:butt;stroke-width:31.89}
		.st3 {fill:#341a6e;stroke:none;stroke-linecap:butt;stroke-width:31.89}
		.st4 {fill:none;fill-rule:evenodd;font-size:12px;overflow:visible;stroke-linecap:square;stroke-miterlimit:3}
	]]>
	</style>

	<defs id="Patterns_And_Gradients">
		<linearGradient id="grad0-5" x1="0" y1="0" x2="1" y2="0" gradientTransform="rotate(0 0.5 0.5)">
			<stop offset="0" stop-color="#b77af4" stop-opacity="1"/>
			<stop offset="1" stop-color="#773adc" stop-opacity="1"/>
		</linearGradient>
	</defs>
	<g>
		<title>Page-1</title>
		<g id="group5982-1" transform="translate(31.89,-34.0157)">
			<title>Container Kubernetes Service</title>
			<g id="shape5983-2" transform="translate(9.21887,-34.8501)">
				<title>polygon41</title>
				<path d="M0 102.46 L0 114.97 L8.97 116.93 L17.97 113.24 L17.97 103.9 L8.97 100.76 L0 102.46 Z" class="st1"/>
			</g>
			<g id="shape5984-6" transform="translate(9.40701,-35.0051)">
				<title>path43</title>
				<path d="M9.12 116.89 L17.34 113.49 a0.627134 0.641807 -180 0 0 0.376281 -0.449264 L17.72 104.57 a0.658491 0.673897
							 -180 0 0 -0.407638 -0.577626 L9 101.1 L8.62 101.1 L0.47 102.64 a0.627134 0.641807 -180 0 0 -0.470351
							 0.577626 L0 114.55 a0.595777 0.609716 -180 0 0 0.470351 0.609715 L8.72 116.92 A1.00341 1.02689 -180
							 0 0 9.12 116.89 L9.12 116.89 Z" class="st2"/>
			</g>
			<g id="shape5985-8" transform="translate(9.21887,-34.8501)">
				<title>path45</title>
				<path d="M0 102.46 L0 114.97 L9.06 116.93 L9.06 100.88 L0 102.46 ZM3.83 114.01 L1.29 113.5 L1.29 103.87 L3.83 103.45
							 L3.83 114.01 ZM7.78 114.75 L4.86 114.27 L4.86 103.26 L7.78 102.75 L7.78 114.75 Z" class="st3"/>
			</g>
			<g id="shape5986-10" transform="translate(28.6287,-34.6896)">
				<title>polygon47</title>
				<path d="M0 102.46 L0 114.97 L8.97 116.93 L17.94 113.21 L17.94 103.9 L8.97 100.76 L0 102.46 Z" class="st1"/>
			</g>
			<g id="shape5987-13" transform="translate(28.6287,-34.6896)">
				<title>path49</title>
				<path d="M0 102.46 L0 114.97 L9 116.93 L9 100.88 L0 102.46 ZM3.79 114.01 L1.25 113.5 L1.25 103.87 L3.79 103.45 L3.79
							 114.01 ZM7.75 114.75 L4.83 114.27 L4.83 103.26 L7.75 102.71 L7.75 114.75 Z" class="st3"/>
			</g>
			<g id="shape5988-15" transform="translate(0.0313567,-17.5855)">
				<title>polygon51</title>
				<path d="M0 102.46 L0 114.97 L8.97 116.93 L17.97 113.24 L17.97 103.9 L8.97 100.76 L0 102.46 Z" class="st1"/>
			</g>
			<g id="shape5989-18" transform="translate(0,-17.6818)">
				<title>path53</title>
				<path d="M0 102.55 L0 114.97 L9.06 116.93 L9.06 100.88 L0 102.55 ZM3.79 114.14 L1.25 113.59 L1.25 103.96 L3.79 103.52
							 L3.79 114.14 ZM7.78 114.97 L4.86 114.49 L4.86 103.36 L7.78 102.84 L7.78 114.97 Z" class="st3"/>
			</g>
			<g id="shape5990-20" transform="translate(19.3784,-17.6818)">
				<title>polygon55</title>
				<path d="M0 102.42 L0 114.94 L8.97 116.93 L17.94 113.21 L17.94 103.87 L8.97 100.72 L0 102.42 Z" class="st1"/>
			</g>
			<g id="shape5991-23" transform="translate(19.3784,-17.6818)">
				<title>path57</title>
				<path d="M0 102.42 L0 114.97 L9.03 116.93 L9.03 100.88 L0 102.42 ZM3.79 114.01 L1.25 113.46 L1.25 103.84 L3.79 103.39
							 L3.79 114.01 ZM7.75 114.72 L4.83 114.23 L4.83 103.23 L7.75 102.71 L7.75 114.72 Z" class="st3"/>
			</g>
			<g id="shape5992-25" transform="translate(38.7255,-17.5534)">
				<title>polygon59</title>
				<path d="M0 102.46 L0 114.97 L8.97 116.93 L17.97 113.24 L17.97 103.9 L8.97 100.76 L0 102.46 Z" class="st1"/>
			</g>
			<g id="shape5993-28" transform="translate(38.7255,-17.6818)">
				<title>path61</title>
				<path d="M0 102.58 L0 114.97 L9.06 116.93 L9.06 100.88 L0 102.58 ZM3.83 114.17 L1.29 113.62 L1.29 104 L3.83 103.55
							 L3.83 114.17 ZM7.78 114.88 L4.86 114.39 L4.86 103.39 L7.78 102.87 L7.78 114.88 Z" class="st3"/>
			</g>
			<g id="shape5994-30" transform="translate(8.99937,-0.128361)">
				<title>polygon63</title>
				<path d="M0 102.42 L0 114.94 L8.97 116.93 L17.97 113.21 L17.97 103.9 L8.97 100.76 L0 102.42 Z" class="st1"/>
			</g>
			<g id="shape5995-33" transform="translate(9.15616,-0.35007)">
				<title>path65</title>
				<path d="M9.16 116.89 L17.34 113.69 a0.564421 0.577626 -180 0 0 0.37628 -0.577626 L17.72 104.76 a0.627134 0.641807
							 -180 0 0 -0.407636 -0.705987 L9.03 101.17 a0.533064 0.545536 -180 0 0 -0.37628 0 L0.5 102.68 a0.595777
							 0.609716 -180 0 0 -0.501707 0.609716 L0 114.65 a0.595777 0.609716 -180 0 0 0.470351 0.609716 L8.72 116.89
							 a0.721204 0.738078 -180 0 0 0.438993 0 Z" class="st2"/>
			</g>
			<g id="shape5996-35" transform="translate(8.99937,-0.128361)">
				<title>path67</title>
				<path d="M0 102.42 L0 114.94 L9.06 116.93 L9.06 100.63 L0 102.42 ZM3.83 114.01 L1.29 113.46 L1.29 103.84 L3.83 103.39
							 L3.83 114.01 ZM7.78 114.75 L4.86 114.27 L4.86 103.23 L7.78 102.71 L7.78 114.75 Z" class="st3"/>
			</g>
			<g id="shape5997-37" transform="translate(28.3778,-2.55795E-13)">
				<title>polygon69</title>
				<path d="M0 102.46 L0 114.97 L8.97 116.93 L17.97 113.24 L17.97 103.9 L8.97 100.76 L0 102.46 Z" class="st1"/>
			</g>
			<g id="shape5998-40" transform="translate(28.3778,-4.92679E-08)">
				<title>path71</title>
				<path d="M0 102.46 L0 114.97 L9.06 116.93 L9.06 100.88 L0 102.46 ZM3.83 114.04 L1.29 113.5 L1.29 103.87 L3.83 103.42
							 L3.83 114.04 ZM7.78 114.75 L4.86 114.27 L4.86 103.26 L7.78 102.75 L7.78 114.75 Z" class="st3"/>
			</g>
		</g>
	</g>
</svg>
